dist/img/svg/icon-share.svg

<svg width="30" height="30" viewBox="0 0 30 30" fill="none" xmlns="http://www.w3.org/2000/svg">
<path d="M6.875 18.75C8.0125 18.75 9.04125 18.3025 9.82125 17.5875L17.6462 22.0588C17.5536 22.4067 17.5045 22.7649 17.5 23.125C17.5 25.5375 19.4625 27.5 21.875 27.5C24.2875 27.5 26.25 25.5375 26.25 23.125C26.25 20.7125 24.2875 18.75 21.875 18.75C20.7375 18.75 19.7087 19.1975 18.9287 19.9125L11.1038 15.4412C11.1825 15.1325 11.2325 14.8138 11.2388 14.4812L18.9275 10.0875C19.7087 10.8025 20.7375 11.25 21.875 11.25C24.2875 11.25 26.25 9.2875 26.25 6.875C26.25 4.4625 24.2875 2.5 21.875 2.5C19.4625 2.5 17.5 4.4625 17.5 6.875C17.5 7.245 17.56 7.5975 17.6462 7.94125L10.5412 12.0025C10.1459 11.3892 9.60331 10.8846 8.9629 10.5348C8.3225 10.185 7.6047 10.0011 6.875 10C4.4625 10 2.5 11.9625 2.5 14.375C2.5 16.7875 4.4625 18.75 6.875 18.75ZM21.875 21.25C22.9088 21.25 23.75 22.0912 23.75 23.125C23.75 24.1588 22.9088 25 21.875 25C20.8412 25 20 24.1588 20 23.125C20 22.0912 20.8412 21.25 21.875 21.25ZM21.875 5C22.9088 5 23.75 5.84125 23.75 6.875C23.75 7.90875 22.9088 8.75 21.875 8.75C20.8412 8.75 20 7.90875 20 6.875C20 5.84125 20.8412 5 21.875 5ZM6.875 12.5C7.90875 12.5 8.75 13.3413 8.75 14.375C8.75 15.4087 7.90875 16.25 6.875 16.25C5.84125 16.25 5 15.4087 5 14.375C5 13.3413 5.84125 12.5 6.875 12.5Z" fill="white"/>
</svg>

<svg width="30" height="30" viewBox="0 0 30 30" fill="none" xmlns="http://www.w3.org/2000/svg"><path d="M6.875 18.75a4.347 4.347 0 002.946-1.163l7.825 4.472a4.357 4.357 0 00-.146 1.066 4.38 4.38 0 004.375 4.375 4.38 4.38 0 004.375-4.375 4.38 4.38 0 00-4.375-4.375 4.348 4.348 0 00-2.946 1.163l-7.825-4.472a4.19 4.19 0 00.135-.96l7.688-4.393a4.353 4.353 0 002.948 1.162 4.38 4.38 0 004.375-4.375A4.38 4.38 0 0021.875 2.5 4.38 4.38 0 0017.5 6.875c0 .37.06.723.146 1.066l-7.105 4.061A4.37 4.37 0 006.875 10 4.38 4.38 0 002.5 14.375a4.38 4.38 0 004.375 4.375zm15 2.5c1.034 0 1.875.841 1.875 1.875A1.877 1.877 0 0121.875 25 1.877 1.877 0 0120 23.125c0-1.034.841-1.875 1.875-1.875zm0-16.25c1.034 0 1.875.841 1.875 1.875a1.877 1.877 0 01-1.875 1.875A1.877 1.877 0 0120 6.875C20 5.841 20.841 5 21.875 5zm-15 7.5c1.034 0 1.875.841 1.875 1.875a1.877 1.877 0 01-1.875 1.875A1.877 1.877 0 015 14.375c0-1.034.841-1.875 1.875-1.875z" fill="#fff"/></svg>
